src/images/ask.svg

<svg width="34px" height="32px" viewBox="459 846 34 32" version="1.1" xmlns="http://www.w3.org/2000/svg" xmlns:xlink="http://www.w3.org/1999/xlink">
    <!-- Generator: Sketch 41.1 (35376) - http://www.bohemiancoding.com/sketch -->
    <desc>Created with Sketch.</desc>
    <defs></defs>
    <path d="M465.952719,877.990544 L464.135165,877.990544 L465.205201,876.521631 C466.015012,875.411407 466.544504,873.995745 466.81578,872.208333 C461.768026,869.951714 459,865.637411 459,859.985816 C459,851.35922 465.514657,846 476,846 C486.485343,846 493,851.35922 493,859.985816 C493,868.743026 486.645095,873.971631 476,873.971631 C475.762884,873.971631 475.528783,873.965603 475.295686,873.95656 C473.699173,875.880615 470.834693,877.990544 465.952719,877.990544 L465.952719,877.990544 Z M476,847.8487 C466.513357,847.8487 460.8487,852.386052 460.8487,859.985816 C460.8487,866.505496 464.827423,869.44935 468.16513,870.770567 L468.821217,871.030792 L468.742849,871.733097 C468.557979,873.398936 468.188239,874.823641 467.619563,876.041371 C471.032624,875.616371 473.021986,873.914362 474.126182,872.456501 L474.417553,872.07169 L475.03747,872.096809 C475.355969,872.10987 475.675473,872.122931 476,872.122931 C489.67435,872.122931 491.1513,863.634988 491.1513,859.985816 C491.1513,852.386052 485.486643,847.8487 476,847.8487 L476,847.8487 Z" id="Fill-59" stroke="none" fill="#F64242" fill-rule="evenodd"></path>
</svg>

<svg width="34" height="32" viewBox="459 846 34 32" xmlns="http://www.w3.org/2000/svg"><path d="M465.953 877.99h-1.818l1.07-1.468c.81-1.11 1.34-2.526 1.61-4.314-5.047-2.256-7.815-6.57-7.815-12.222 0-8.627 6.515-13.986 17-13.986s17 5.36 17 13.986c0 8.757-6.355 13.986-17 13.986-.237 0-.471-.006-.704-.015-1.597 1.924-4.461 4.034-9.343 4.034zM476 847.85c-9.487 0-15.151 4.537-15.151 12.137 0 6.52 3.978 9.463 7.316 10.785l.656.26-.078.702c-.185 1.666-.555 3.09-1.123 4.308 3.413-.425 5.402-2.127 6.506-3.584l.292-.385.62.025c.318.013.637.026.962.026 13.674 0 15.151-8.488 15.151-12.137 0-7.6-5.664-12.137-15.151-12.137z" fill="#F64242" fill-rule="evenodd"/></svg>
